src/assets/logo-circle.svg

<svg fill="none" height="46" viewBox="0 0 46 46" width="46" xmlns="http://www.w3.org/2000/svg"><path d="m22.5791 0c12.4699.0000835 22.5791 10.1091 22.5791 22.5791-.0001 12.4699-10.1092 22.579-22.5791 22.5791-12.47 0-22.5790165-10.1092-22.5791-22.5791 0-12.47 10.1091-22.5791 22.5791-22.5791zm-4.4853 15.3535v8.2031c.0769 1.3242-.3041 2.6351-1.0801 3.711-.3419.4542-.7879.8201-1.2998 1.0674-.5121.2472-1.0761.369-1.6446.3545-.5683.0134-1.1316-.1093-1.6435-.3565s-.9581-.612-1.3008-1.0654c-.7811-1.0741-1.16756-2.385-1.0947-3.711v-10.8466l-4.37991 2.6435v8.3457c-.07375 1.1946.09827 2.3916.50684 3.5166s1.04493 2.1544 1.86816 3.0235c.80254.7676 1.75113 1.3662 2.78911 1.7617 1.038.3955 2.1446.58 3.2548.541 1.1092.0408 2.215-.1412 3.253-.5342 1.0379-.3931 1.9872-.9897 2.791-1.7549.8232-.8714 1.458-1.9035 1.8642-3.0312.4061-1.1275.5756-2.3267.4971-3.5225v-10.9892zm19.3691-.8818c-1.9295-1.3327-4.2613-1.9556-6.5986-1.7627h-6.9258v19.6328l4.3799-2.6299v-2.8428h2.6025c2.2897.1716 4.5715-.4242 6.4853-1.6923.7428-.6602 1.3217-1.4843 1.6895-2.4073.3678-.9229.5148-1.9193.4297-2.9091.0777-.9948-.0672-1.9949-.4238-2.9268-.3567-.9319-.9166-1.7731-1.6387-2.4619zm-6.6416 2.0049c1.1085-.0792 2.2159.168 3.1855.7109.3581.2861.6396.6571.8184 1.0791.1786.4218.2496.881.206 1.3369.0631.9312-.221 1.8532-.7968 2.5879-.4087.3423-.8834.5974-1.3946.749-.5111.1516-1.0478.197-1.5771.1328h-2.9443v-6.5966z" fill="#16d2aa"/></svg>

<svg width="46" height="46" viewBox="0 0 46 46" fill="none" xmlns="http://www.w3.org/2000/svg">
<path d="M22.5791 0C35.049 8.34952e-05 45.1582 10.1091 45.1582 22.5791C45.1581 35.049 35.049 45.1581 22.5791 45.1582C10.1091 45.1582 8.35006e-05 35.049 0 22.5791C0 10.1091 10.1091 0 22.5791 0ZM18.0938 15.3535V23.5566C18.1707 24.8808 17.7897 26.1917 17.0137 27.2676C16.6718 27.7218 16.2258 28.0877 15.7139 28.335C15.2018 28.5822 14.6378 28.704 14.0693 28.6895C13.501 28.7029 12.9377 28.5802 12.4258 28.333C11.9139 28.0858 11.4677 27.721 11.125 27.2676C10.3439 26.1935 9.95744 24.8826 10.0303 23.5566V12.71L5.65039 15.3535V23.6992C5.57664 24.8938 5.74866 26.0908 6.15723 27.2158C6.5658 28.3408 7.20216 29.3702 8.02539 30.2393C8.82793 31.0069 9.77652 31.6055 10.8145 32.001C11.8525 32.3965 12.9591 32.581 14.0693 32.542C15.1785 32.5828 16.2843 32.4008 17.3223 32.0078C18.3602 31.6147 19.3095 31.0181 20.1133 30.2529C20.9365 29.3815 21.5713 28.3494 21.9775 27.2217C22.3836 26.0942 22.5531 24.895 22.4746 23.6992V12.71L18.0938 15.3535ZM37.4629 14.4717C35.5334 13.139 33.2016 12.5161 30.8643 12.709H23.9385V32.3418L28.3184 29.7119V26.8691H30.9209C33.2106 27.0407 35.4924 26.4449 37.4062 25.1768C38.149 24.5166 38.7279 23.6925 39.0957 22.7695C39.4635 21.8466 39.6105 20.8502 39.5254 19.8604C39.6031 18.8656 39.4582 17.8655 39.1016 16.9336C38.7449 16.0017 38.185 15.1605 37.4629 14.4717ZM30.8213 16.4766C31.9298 16.3974 33.0372 16.6446 34.0068 17.1875C34.3649 17.4736 34.6464 17.8446 34.8252 18.2666C35.0038 18.6884 35.0748 19.1476 35.0312 19.6035C35.0943 20.5347 34.8102 21.4567 34.2344 22.1914C33.8257 22.5337 33.351 22.7888 32.8398 22.9404C32.3287 23.092 31.792 23.1374 31.2627 23.0732H28.3184V16.4766H30.8213Z" fill="#16D2AA"/>
</svg>
